symbols/web/folder_off/materialsymbolsoutlined/folder_off_grad200_40px.svg

<svg xmlns="http://www.w3.org/2000/svg" height="40" width="40"><path d="m37.333 32.125-3.25-3.25v-16.5H19.542l-3.5-3.5h-1.959l-3.5-3.5h5.959l3.5 3.5h14.041q1.417 0 2.459 1.063 1.041 1.062 1.041 2.437v18.583q0 .334-.041.625-.042.292-.209.542Zm-1.166 7.667-5.375-5.334H5.958q-1.375 0-2.437-1.062-1.063-1.063-1.063-2.438V8.875q0-1.375.979-2.375.98-1 2.313-1.125h.917l3.5 3.5H5.958v22.083h21.334L2 5.625l2.458-2.458 34.167 34.166ZM16.75 20.417Zm7.292-1.625Z"/></svg>

<svg xmlns="http://www.w3.org/2000/svg" height="40" width="40"><path d="M37.333 32.125 34.083 28.875V12.375Q34.083 12.375 34.083 12.375Q34.083 12.375 34.083 12.375H19.542L16.042 8.875H14.083L10.583 5.375H16.542L20.042 8.875H34.083Q35.5 8.875 36.542 9.938Q37.583 11 37.583 12.375V30.958Q37.583 31.292 37.542 31.583Q37.5 31.875 37.333 32.125ZM36.167 39.792 30.792 34.458H5.958Q4.583 34.458 3.521 33.396Q2.458 32.333 2.458 30.958V8.875Q2.458 8.417 2.646 7.854Q2.833 7.292 3.25 6.875L2 5.625L4.458 3.167L38.625 37.333ZM5.958 30.958H27.292L6.208 9.875H5.958Q5.958 9.875 5.958 9.875Q5.958 9.875 5.958 9.875V30.958Q5.958 30.958 5.958 30.958Q5.958 30.958 5.958 30.958ZM16.75 20.417Q16.75 20.417 16.75 20.417Q16.75 20.417 16.75 20.417Q16.75 20.417 16.75 20.417Q16.75 20.417 16.75 20.417ZM24.042 18.792Q24.042 18.792 24.042 18.792Q24.042 18.792 24.042 18.792Z"/></svg>
